X: 10141
T: the FAIRY DANCE.     a Reel.
R: reel
B: "Edinburgh Repository of Music" v.1 p.14 #1
F: http://digital.nls.uk/special-collections-of-printed-music/pageturner.cfm?id=87776133
Z: 2015 John Chambers <jc:trillian.mit.edu>
N: The last note should probably be dropped.
M: C|
L: 1/8
K: D
d>e |\
f2fd f2fd | f2fd cAec |\
f2fd gfed | cABc d2 :|\
df |\
a2a>f b2ba | gfge a2ag |
f2fd B2ge | cABc d2df |\
a2af b2ba | gfge a2ag |\
f2f>d B2ge | cABc d2d2 |]
